icons/glyphs/glyph-skrooge.svg

<?xml version="1.0" encoding="UTF-8" standalone="no"?><svg height="16" viewBox="0 0 4.2333332 4.2333332" width="16" xmlns="http://www.w3.org/2000/svg"><sodipodi:namedview/><metadata><rdf:RDF><cc:Work><dc:format>image/svg+xml</dc:format><dc:type/><dc:title/></cc:Work></rdf:RDF></metadata><path d="m8 0a7.9999879 7.9999879 0 0 0 -8 8 7.9999879 7.9999879 0 0 0 8 8 7.9999879 7.9999879 0 0 0 8-8 7.9999879 7.9999879 0 0 0 -8-8zm0 .88867188a7.1111061 7.1111061 0 0 1 6.980469 5.77734372h-1.646485c-.246221 0-.445312.1990891-.445312.4453125 0 .2462211.199089.4433594.445312.4433594h1.759766a7.1111061 7.1111061 0 0 1  .017578.4453125 7.1111061 7.1111061 0 0 1 -.023437.4453125h-1.753907c-.246221 0-.445312.197136-.445312.4433594 0 .2462211.199089.4453125.445312.4453125h1.648438a7.1111061 7.1111061 0 0 1 -6.982422 5.7773436 7.1111061 7.1111061 0 0 1 -6.9804688-5.7773436h1.6464844c.2462211 0 .4453125-.1990891.4453125-.4453125 0-.2462211-.1990891-.4433594-.4453125-.4433594h-1.7597656a7.1111061 7.1111061 0 0 1 -.01757812-.4453125 7.1111061 7.1111061 0 0 1  .0234375-.4453125h1.75390622c.2462211 0 .4453125-.1971364.4453125-.4433594 0-.2462211-.1990891-.4453125-.4453125-.4453125h-1.6484375a7.1111061 7.1111061 0 0 1 6.9824219-5.77734372z" fill="#d0d0d0" stroke-width="3.779528" transform="scale(.26458333)"/><path d="m8 2.6660156c-.2964435 0-.5742203.085126-.7871094.2402344-.2088869.1551118-.3420245.3602794-.4433594.5625-.2017776.4040003-.3042678.8291478-.4980468 1.2207031-.073334.1426659-.096531.1420277-.1445313.15625-.048.014665-.1647344.01751-.3398437-.00781-.3555553-.0506708-.9374602-.2039459-1.5410156.0996069-.341779.1688882-.5672676.4920314-.6601563.8320312-.096.3399988-.0867097.7051421-.0253906 1.0820313.127113.7537777.4834287 1.5689809.9589843 2.2832031.4266668.6382224.9840212 1.6422224 1.5546876 2.5000004.2853354.426666.5728712.818953.8710937 1.126953.2982236.306221.610243.572265 1.0546875.572265.4444441 0 .756465-.266042 1.0546875-.572265.2973354-.307998.5857606-.700287.8710937-1.126953.5706668-.857778 1.1293538-1.861778 1.5546878-2.5000004.476-.7142222.831697-1.5294254.957031-2.2832031.064-.3768869.06901-.742031-.02344-1.0820313-.094648-.3399979-.316598-.6631422-.660154-.8320312-.603111-.3035565-1.185284-.1502777-1.539062-.0996094-.176444.0253229-.2944161.0224771-.3437502.0078125-.0444435-.014211-.0672909-.0135728-.140625-.15625-.1959988-.3915587-.3000014-.8167028-.5-1.2207031-.101333-.2022236-.23571-.4073889-.4472657-.5625-.2106671-.1551118-.4867585-.2402344-.7832031-.2402344zm0 4.4453125c.2462211 0 .4453125.1971364.4453125.4433594v2.6679685c0 .246221-.1990891.44336-.4453125.44336-.2462211 0-.4453125-.197136-.4453125-.44336v-2.6679685c0-.2462211.1990895-.4433594.4453125-.4433594z" fill="#ffb900" stroke-width="3.779528" transform="scale(.26458333)"/></svg>

<?xml version="1.0" encoding="UTF-8" standalone="no"?>
<!-- Created with Inkscape (http://www.inkscape.org/) -->

<svg
   xmlns:dc="http://purl.org/dc/elements/1.1/"
   xmlns:cc="http://creativecommons.org/ns#"
   xmlns:rdf="http://www.w3.org/1999/02/22-rdf-syntax-ns#"
   xmlns:svg="http://www.w3.org/2000/svg"
   xmlns="http://www.w3.org/2000/svg"
   xmlns:sodipodi="http://sodipodi.sourceforge.net/DTD/sodipodi-0.dtd"
   xmlns:inkscape="http://www.inkscape.org/namespaces/inkscape"
   width="16"
   height="16"
   viewBox="0 0 4.2333332 4.2333332"
   version="1.1"
   id="svg8"
   inkscape:version="0.92+devel (b8837397f6, 2017-07-27, custom)"
   sodipodi:docname="glyph-skrooge.svg">
  <defs
     id="defs2">
    <linearGradient
       id="b"
       y1="42"
       x1="42"
       y2="6"
       x2="6"
       gradientUnits="userSpaceOnUse"
       gradientTransform="matrix(0.44444445,0,0,0.44444445,-2.6666668,-2.6666666)">
      <stop
         stop-color="#989a9b"
         id="stop7" />
      <stop
         offset="1"
         stop-color="#f6f6f7"
         id="stop9" />
    </linearGradient>
  </defs>
  <sodipodi:namedview
     id="base"
     pagecolor="#002466"
     bordercolor="#ffffff"
     borderopacity="0.38039216"
     inkscape:pageopacity="1"
     inkscape:pageshadow="2"
     inkscape:zoom="36.415999"
     inkscape:cx="15.127295"
     inkscape:cy="7.9361792"
     inkscape:document-units="px"
     inkscape:current-layer="svg8"
     inkscape:document-rotation="0"
     showgrid="false"
     inkscape:showpageshadow="false"
     borderlayer="true"
     inkscape:window-width="1920"
     inkscape:window-height="1051"
     inkscape:window-x="0"
     inkscape:window-y="0"
     inkscape:window-maximized="1"
     units="px" />
  <metadata
     id="metadata5">
    <rdf:RDF>
      <cc:Work
         rdf:about="">
        <dc:format>image/svg+xml</dc:format>
        <dc:type
           rdf:resource="http://purl.org/dc/dcmitype/StillImage" />
        <dc:title></dc:title>
      </cc:Work>
    </rdf:RDF>
  </metadata>
  <path
     style="opacity:1;fill:#d0d0d0;stroke-width:3.77952766"
     d="M 8,0 A 7.9999879,7.9999879 0 0 0 0,8 7.9999879,7.9999879 0 0 0 8,16 7.9999879,7.9999879 0 0 0 16,8 7.9999879,7.9999879 0 0 0 8,0 Z m 0,0.88867188 a 7.1111061,7.1111061 0 0 1 6.980469,5.77734372 h -1.646485 c -0.246221,0 -0.445312,0.1990891 -0.445312,0.4453125 0,0.2462211 0.199089,0.4433594 0.445312,0.4433594 H 15.09375 A 7.1111061,7.1111061 0 0 1 15.111328,8 7.1111061,7.1111061 0 0 1 15.087891,8.4453125 h -1.753907 c -0.246221,0 -0.445312,0.197136 -0.445312,0.4433594 0,0.2462211 0.199089,0.4453125 0.445312,0.4453125 h 1.648438 A 7.1111061,7.1111061 0 0 1 8,15.111328 7.1111061,7.1111061 0 0 1 1.0195312,9.3339844 h 1.6464844 c 0.2462211,0 0.4453125,-0.1990891 0.4453125,-0.4453125 0,-0.2462211 -0.1990891,-0.4433594 -0.4453125,-0.4433594 H 0.90625 A 7.1111061,7.1111061 0 0 1 0.88867188,8 7.1111061,7.1111061 0 0 1 0.91210938,7.5546875 H 2.6660156 c 0.2462211,0 0.4453125,-0.1971364 0.4453125,-0.4433594 0,-0.2462211 -0.1990891,-0.4453125 -0.4453125,-0.4453125 H 1.0175781 A 7.1111061,7.1111061 0 0 1 8,0.88867188 Z"
     transform="scale(0.26458333)"
     id="path1457"
     inkscape:label="#"
     inkscape:connector-curvature="0" />
  <path
     style="opacity:1;fill:#ffb900;stroke-width:3.77952766"
     d="m 8,2.6660156 c -0.2964435,0 -0.5742203,0.085126 -0.7871094,0.2402344 C 7.0040037,3.0613618 6.8708661,3.2665294 6.7695312,3.46875 6.5677536,3.8727503 6.4652634,4.2978978 6.2714844,4.6894531 c -0.073334,0.1426659 -0.096531,0.1420277 -0.1445313,0.15625 -0.048,0.014665 -0.1647344,0.01751 -0.3398437,-0.00781 C 5.4315541,4.7872223 4.8496492,4.6339472 4.2460938,4.9375 3.9043148,5.1063882 3.6788262,5.4295314 3.5859375,5.7695312 3.4899375,6.10953 3.4992278,6.4746733 3.5605469,6.8515625 3.6876599,7.6053402 4.0439756,8.4205434 4.5195312,9.1347656 4.946198,9.772988 5.5035524,10.776988 6.0742188,11.634766 6.3595542,12.061432 6.64709,12.453719 6.9453125,12.761719 7.2435361,13.06794 7.5555555,13.333984 8,13.333984 c 0.4444441,0 0.756465,-0.266042 1.0546875,-0.572265 C 9.3520229,12.453721 9.6404481,12.061432 9.9257812,11.634766 10.496448,10.776988 11.055135,9.772988 11.480469,9.1347656 11.956469,8.4205434 12.312166,7.6053402 12.4375,6.8515625 12.5015,6.4746756 12.50651,6.1095315 12.41406,5.7695312 12.319412,5.4295333 12.097462,5.106389 11.753906,4.9375 11.150795,4.6339435 10.568622,4.7872223 10.214844,4.8378906 10.0384,4.8632135 9.9204279,4.8603677 9.8710938,4.8457031 9.8266503,4.8314921 9.8038029,4.8321303 9.7304688,4.6894531 9.53447,4.2978944 9.4304674,3.8727503 9.2304688,3.46875 9.1291358,3.2665264 8.9947588,3.0613611 8.7832031,2.90625 8.572536,2.7511382 8.2964446,2.6660156 8,2.6660156 Z m 0,4.4453125 c 0.2462211,0 0.4453125,0.1971364 0.4453125,0.4433594 v 2.6679685 c 0,0.246221 -0.1990891,0.44336 -0.4453125,0.44336 -0.2462211,0 -0.4453125,-0.197136 -0.4453125,-0.44336 V 7.5546875 C 7.5546875,7.3084664 7.753777,7.1113281 8,7.1113281 Z"
     transform="scale(0.26458333)"
     id="path1453"
     inkscape:connector-curvature="0"
     inkscape:label="#" />
</svg>
